X: 166
T: Kua saosao
L: 1/16
M: 2/4
K: G
d2 e dA4 [I:setbarnb 1]| 
e2 d BA4 | 
d2 d2 e2 d B | 
A B A GE4 | 
A2 A2 d2 d2 | 
E2 G2c4 | 
E2 E G E2 D B, | 
A,8 |]

@@@ Tune index: 9040
